imgs/platform-2.svg

<svg width="24" height="14" viewBox="0 0 24 14" fill="none" xmlns="http://www.w3.org/2000/svg">
<path d="M8.33333 7L8.33333 1.72C8.33333 1.62545 8.3523 1.53182 8.38916 1.44447C8.42601 1.35711 8.48003 1.27774 8.54812 1.21088C8.61622 1.14402 8.69706 1.09099 8.78603 1.0548C8.87501 1.01862 8.97037 0.999998 9.06667 0.999998L22.2667 0.999999C22.363 0.999999 22.4583 1.01862 22.5473 1.05481C22.6363 1.09099 22.7171 1.14402 22.7852 1.21088C22.8533 1.27774 22.9073 1.35711 22.9442 1.44447C22.981 1.53182 23 1.62545 23 1.72L23 12.28C23 12.471 22.9227 12.6541 22.7852 12.7891C22.6477 12.9241 22.4612 13 22.2667 13L9.06667 13C8.87218 13 8.68565 12.9241 8.54812 12.7891C8.41059 12.6541 8.33333 12.471 8.33333 12.28L8.33333 7ZM8.33333 7L2.20267 12.016C2.09558 12.1036 1.9653 12.1594 1.82708 12.1769C1.68886 12.1944 1.54842 12.1728 1.42222 12.1148C1.29602 12.0567 1.18928 11.9646 1.1145 11.8491C1.03972 11.7336 1.00001 11.5996 1 11.4628L1 2.5372C1.00024 2.40047 1.04012 2.26663 1.11499 2.15134C1.18986 2.03606 1.29662 1.94408 1.42277 1.88618C1.54893 1.82827 1.68927 1.80684 1.82738 1.82437C1.96549 1.84191 2.09566 1.89769 2.20267 1.9852L8.33333 7Z" stroke="#006AFF" stroke-width="1.5" stroke-linecap="round" stroke-linejoin="round"/>
</svg>

<svg width="24" height="14" fill="none" xmlns="http://www.w3.org/2000/svg"><path d="M8.333 7V1.72a.709.709 0 0 1 .215-.51.735.735 0 0 1 .519-.21h13.2a.745.745 0 0 1 .518.21.72.72 0 0 1 .215.51v10.56a.713.713 0 0 1-.215.51.74.74 0 0 1-.518.21h-13.2a.74.74 0 0 1-.519-.21.713.713 0 0 1-.215-.51V7Zm0 0-6.13 5.016a.74.74 0 0 1-1.088-.167.71.71 0 0 1-.115-.386V2.537c0-.137.04-.27.115-.386a.745.745 0 0 1 1.088-.166L8.333 7Z" stroke="#006AFF" stroke-width="1.5" stroke-linecap="round" stroke-linejoin="round"/></svg>
